src/public/img/figma.svg

<svg fill="none" height="96" viewBox="0 0 64 96" width="64" xmlns="http://www.w3.org/2000/svg"><path d="m0 80c0-8.8365 7.16352-16 16-16h16v16c0 8.8365-7.1635 16-16 16-8.83648 0-16-7.1635-16-16z" fill="#24cb71"/><path d="m32 0v32h16c8.8365 0 16-7.1635 16-16 0-8.83648-7.1635-16-16-16z" fill="#ff7237"/><path d="m48 64c8.8366 0 16-7.1634 16-16s-7.1634-16-16-16-16 7.1634-16 16 7.1634 16 16 16z" fill="#00b6ff"/><path d="m0 16c0 8.8365 7.16352 16 16 16h16v-32h-16c-8.83648 0-16 7.16352-16 16z" fill="#ff3737"/><path d="m0 48c0 8.8365 7.16352 16 16 16h16v-32h-16c-8.83648 0-16 7.1635-16 16z" fill="#874fff"/></svg>

<svg width="64" height="96" viewBox="0 0 64 96" fill="none" xmlns="http://www.w3.org/2000/svg">
<path d="M0 80C0 71.1635 7.16352 64 16 64H32V80C32 88.8365 24.8365 96 16 96C7.16352 96 0 88.8365 0 80Z" fill="#24CB71"/>
<path d="M32 0V32H48C56.8365 32 64 24.8365 64 16C64 7.16352 56.8365 0 48 0H32Z" fill="#FF7237"/>
<path d="M48 64C56.8366 64 64 56.8366 64 48C64 39.1634 56.8366 32 48 32C39.1634 32 32 39.1634 32 48C32 56.8366 39.1634 64 48 64Z" fill="#00B6FF"/>
<path d="M0 16C0 24.8365 7.16352 32 16 32H32V0H16C7.16352 0 0 7.16352 0 16Z" fill="#FF3737"/>
<path d="M0 48C0 56.8365 7.16352 64 16 64H32V32H16C7.16352 32 0 39.1635 0 48Z" fill="#874FFF"/>
</svg>
